src/icons/3d.svg

<svg viewBox="0 0 24 24" xmlns="http://www.w3.org/2000/svg">
  <path
    d="M21 16.5c0 .38-.21.71-.53.88l-7.9 4.44c-.16.12-.36.18-.57.18s-.41-.06-.57-.18l-7.9-4.44A.991.991 0 0 1 3 16.5v-9c0-.38.21-.71.53-.88l7.9-4.44c.16-.12.36-.18.57-.18s.41.06.57.18l7.9 4.44c.32.17.53.5.53.88v9M12 4.15 6.04 7.5 12 10.85l5.96-3.35L12 4.15M5 15.91l6 3.38v-6.71L5 9.21v6.7m14 0v-6.7l-6 3.37v6.71z"
    fill="#29b6f6"
  />
</svg>

<svg viewBox="0 0 24 24" xmlns="http://www.w3.org/2000/svg">
  <path
    d="M21 16.5C21 16.88 20.79 17.21 20.47 17.38L12.57 21.82C12.41 21.94 12.21 22 12 22C11.79 22 11.59 21.94 11.43 21.82L3.53 17.38C3.36968 17.2958 3.23551 17.1692 3.14207 17.014C3.04863 16.8589 2.9995 16.6811 3 16.5V7.5C3 7.12 3.21 6.79 3.53 6.62L11.43 2.18C11.59 2.06 11.79 2 12 2C12.21 2 12.41 2.06 12.57 2.18L20.47 6.62C20.79 6.79 21 7.12 21 7.5V16.5ZM12 4.15L6.04 7.5L12 10.85L17.96 7.5L12 4.15ZM5 15.91L11 19.29V12.58L5 9.21V15.91ZM19 15.91V9.21L13 12.58V19.29L19 15.91Z"
    fill="#29B6F6"
  />
</svg>
